X:299
%%etbk:tnset id:93,pos:1,rep:3x,ant:
%%etbk:wsite http://www.thesession.org/tunes/display/1585
%%etbk:pldat 2015-01-24T12:35,2015-01-18T11:11,2014-05-11T12:17,2014-05-07T16:16,2014-03-15T16:34,2013-12-10T19:08,2013-11-24T15:34,2013-11-19T16:47,2013-11-13T16:52,2013-05-15T17:00,2013-05-01T15:49
T: Hole In The Boat, The
S: Mary MacNamara
Z: Piano Box Version by Martin Fleischmann
H: Created 2013-02-19 /  Last Modified 2013-02-19
M: 6/8
L: 1/8
R: jig
K: Edor
|:"em"!2!E2E !3!FEE | !2!E!3!F!4!A !2!B!3!d!5!f | "D"!4!e!3!d!2!B !2!B!4!dB | !1!A!3!F!1!D !3!FED |
"em"!2!EEE !3!FEE | !2!E!3!F!4!A !2!B!3!d!5!f | "D"!4!e!3!d!2!B !2!B!4!dB | !1!A!3!F!1!D "em"!2!E2:|
|: !3!F!4!A | "em"!2!B2!4!e efe | "D"!3!d!2!B!3!c !4!dcd | "em"!5!eed !2!BBB | "D"!1!A!3!F!1!D !3!FED |
"em"!2!EEE !3!FEE | !2!E!3!F!4!A !2!B!3!d!5!f | "D"!4!e!3!d!2!B !2!B!4!dB | !1!A!3!F!1!D "em"!2!E2:|


